Front-end/assets/images/icons/BuzzFeed.svg

<svg width="142" height="25" viewBox="0 0 142 25" fill="none" xmlns="http://www.w3.org/2000/svg">
<path d="M0 24.5336V0H10.9333C15.5929 0 17.9892 2.98135 17.9892 6.24584C17.9892 9.2938 16.0755 11.3924 13.7623 11.8754C16.4083 12.2752 18.4718 14.8235 18.4718 17.8714C18.4718 21.5856 16.0422 24.5336 11.3493 24.5336H0ZM12.664 7.17855C12.664 5.66289 11.5657 4.59694 9.80171 4.59694H5.22536V9.7435H9.80171C11.5657 9.7435 12.664 8.76083 12.664 7.17855ZM13.1466 17.1386C13.1466 15.5896 12.0483 14.3404 10.018 14.3404H5.22536V19.9367H10.0347C11.9651 19.9367 13.1466 18.9041 13.1466 17.1386Z" fill="#EE3322"/>
<path d="M19.903 17.4217V6.76216H24.5958V17.2718C24.5958 19.3871 25.8772 20.9194 28.3734 20.9194C30.8363 20.9194 32.1343 19.3871 32.1343 17.2718V6.76216H36.8105V17.4051C36.8105 21.8688 34.1313 25 28.39 25C22.6488 25 19.903 21.8354 19.903 17.4217Z" fill="#EE3322"/>
<path d="M38.3581 24.5336V21.036L46.3626 10.8428H38.3581V6.76216H52.7196V10.1099L44.5653 20.453H52.8693V24.5336H38.3581Z" fill="#EE3322"/>
<path d="M54.4003 24.5336V21.036L62.4048 10.8428H54.4003V6.76216H68.7617V10.1099L60.6075 20.453H68.9115V24.5336H54.4003Z" fill="#EE3322"/>
<path d="M70.6589 24.5336V0H87.6662V4.59694H75.8842V9.7435H84.754V14.3404H75.8842V24.5336H70.6589Z" fill="#EE3322"/>
<path d="M86.0687 15.6396C86.0687 10.493 89.8962 6.32911 95.2547 6.32911C100.58 6.32911 104.141 10.3098 104.141 16.0726V17.1719H90.9446C91.2774 19.3371 93.0414 21.1526 96.0534 21.1526C97.5678 21.1526 99.6147 20.5197 100.763 19.4204L102.86 22.5183C101.096 24.1339 98.3 24.9833 95.5542 24.9833C90.1458 24.9833 86.0687 21.3358 86.0687 15.6396ZM95.2547 10.1599C92.3591 10.1599 91.0943 12.1752 90.9113 13.9407H99.6646C99.5148 12.2418 98.3333 10.1599 95.2547 10.1599Z" fill="#EE3322"/>
<path d="M105.406 15.6396C105.406 10.493 109.233 6.32911 114.592 6.32911C119.917 6.32911 123.478 10.3098 123.478 16.0726V17.1719H110.282C110.615 19.3371 112.379 21.1526 115.391 21.1526C116.905 21.1526 118.952 20.5197 120.1 19.4204L122.197 22.5183C120.433 24.1339 117.637 24.9833 114.891 24.9833C109.483 24.9833 105.406 21.3358 105.406 15.6396ZM114.592 10.1599C111.696 10.1599 110.432 12.1752 110.248 13.9407H119.002C118.852 12.2418 117.67 10.1599 114.592 10.1599Z" fill="#EE3322"/>
<path d="M125.192 24.567V6.72885H132.348C137.956 6.72885 142 10.0933 142 15.6396C142 21.1692 137.973 24.567 132.381 24.567H125.192ZM137.457 15.6396C137.457 12.8748 135.793 10.5763 132.531 10.5763H129.636V20.7195H132.531C135.643 20.7195 137.457 18.2878 137.457 15.6396Z" fill="#EE3322"/>
</svg>

<svg width="142" height="25" fill="none" xmlns="http://www.w3.org/2000/svg"><path d="M0 24.534V0h10.933c4.66 0 7.056 2.981 7.056 6.246 0 3.048-1.913 5.146-4.227 5.63 2.646.4 4.71 2.947 4.71 5.995 0 3.715-2.43 6.663-7.123 6.663H0zM12.664 7.179c0-1.516-1.098-2.582-2.862-2.582H5.225v5.146h4.577c1.764 0 2.862-.982 2.862-2.564zm.483 9.96c0-1.55-1.099-2.799-3.129-2.799H5.225v5.597h4.81c1.93 0 3.112-1.033 3.112-2.798zm6.756.283V6.762h4.693v10.51c0 2.115 1.281 3.647 3.777 3.647 2.463 0 3.761-1.532 3.761-3.647V6.762h4.676v10.643c0 4.464-2.679 7.595-8.42 7.595s-8.487-3.165-8.487-7.578zm18.455 7.112v-3.498l8.005-10.193h-8.005v-4.08H52.72v3.347l-8.155 10.343h8.304v4.08H38.36zm16.042 0v-3.498l8.005-10.193H54.4v-4.08h14.362v3.347l-8.154 10.343h8.304v4.08H54.4zm16.259 0V0h17.007v4.597H75.884v5.146h8.87v4.597h-8.87v10.194H70.66zm15.41-8.894c0-5.147 3.827-9.31 9.186-9.31 5.325 0 8.886 3.98 8.886 9.743v1.099H90.945c.332 2.165 2.096 3.98 5.108 3.98 1.515 0 3.562-.632 4.71-1.732l2.097 3.098c-1.764 1.616-4.56 2.465-7.306 2.465-5.408 0-9.485-3.647-9.485-9.343zm9.186-5.48c-2.896 0-4.16 2.015-4.344 3.78h8.754c-.15-1.698-1.332-3.78-4.41-3.78zm10.151 5.48c0-5.147 3.827-9.31 9.186-9.31 5.325 0 8.886 3.98 8.886 9.743v1.099h-13.196c.333 2.165 2.097 3.98 5.109 3.98 1.514 0 3.561-.632 4.709-1.732l2.097 3.098c-1.764 1.616-4.56 2.465-7.306 2.465-5.408 0-9.485-3.647-9.485-9.343zm9.186-5.48c-2.896 0-4.16 2.015-4.344 3.78h8.754c-.15-1.698-1.332-3.78-4.41-3.78zm10.6 14.407V6.729h7.156c5.608 0 9.652 3.364 9.652 8.91 0 5.53-4.027 8.928-9.619 8.928h-7.189zm12.265-8.927c0-2.765-1.664-5.064-4.926-5.064h-2.895V20.72h2.895c3.112 0 4.926-2.431 4.926-5.08z" fill="#E32"/></svg>
